src/lib/packages/icons/src/assets/line/dna.svg

<svg width="24" height="24" viewBox="0 0 24 24" fill="none" xmlns="http://www.w3.org/2000/svg">
<path d="M18.6999 21.1311C18.6359 21.4941 18.319 21.75 17.963 21.75C17.919 21.75 17.875 21.747 17.831 21.739C17.424 21.667 17.151 21.2779 17.224 20.8689C17.233 20.8159 17.2889 20.397 17.2149 19.75H8.61302C8.19902 19.75 7.86302 19.414 7.86302 19C7.86302 18.586 8.19902 18.25 8.61302 18.25H16.853C16.682 17.776 16.444 17.263 16.104 16.72H12C11.586 16.72 11.25 16.384 11.25 15.97C11.25 15.556 11.586 15.22 12 15.22H14.931C14.127 14.362 13.0619 13.4849 11.6169 12.6489C4.74092 8.66893 5.28599 3.14804 5.31199 2.91504C5.35899 2.50304 5.72195 2.20288 6.14195 2.25488C6.55195 2.30188 6.84696 2.67105 6.80296 3.08105C6.79696 3.13805 6.76197 3.579 6.85997 4.25H15C15.414 4.25 15.75 4.586 15.75 5C15.75 5.414 15.414 5.75 15 5.75H7.24803C7.41903 6.218 7.64495 6.721 7.96495 7.25H12C12.414 7.25 12.75 7.586 12.75 8C12.75 8.414 12.414 8.75 12 8.75H9.08995C9.80995 9.551 10.763 10.3569 12 11.1189C17.583 7.6819 17.218 3.27105 17.198 3.08105C17.156 2.67005 17.454 2.30108 17.864 2.25708C18.261 2.21408 18.6429 2.50602 18.6889 2.91602C18.7139 3.13702 19.187 8.09693 13.401 12.0029C19.5 16.0729 18.7379 20.9161 18.6999 21.1311ZM9.77195 14.5271C10.08 14.2501 10.104 13.776 9.82701 13.468C9.55001 13.16 9.07293 13.1371 8.76793 13.4141C4.64992 17.1291 5.26995 20.9689 5.29795 21.1299C5.36095 21.4929 5.67704 21.748 6.03404 21.748C6.07504 21.748 6.11801 21.7451 6.16001 21.7371C6.56701 21.6691 6.84201 21.282 6.775 20.875C6.756 20.745 6.30195 17.6581 9.77195 14.5271Z" fill="currentColor"/>
</svg>

<svg xmlns="http://www.w3.org/2000/svg" width="24" height="24" fill="none"><path fill="currentColor" d="M18.7 21.131a.75.75 0 1 1-1.476-.262c.009-.053.065-.472-.01-1.119h-8.6a.75.75 0 0 1 0-1.5h8.24a7.959 7.959 0 0 0-.749-1.53H12a.75.75 0 0 1 0-1.5h2.931c-.804-.858-1.87-1.735-3.314-2.571-6.876-3.98-6.331-9.501-6.305-9.734a.741.741 0 0 1 .83-.66.75.75 0 0 1 .661.826c-.006.057-.041.498.057 1.169H15a.75.75 0 0 1 0 1.5H7.248c.171.468.397.971.717 1.5H12a.75.75 0 0 1 0 1.5H9.09c.72.801 1.673 1.607 2.91 2.369 5.583-3.437 5.218-7.848 5.198-8.038a.752.752 0 0 1 .666-.824.756.756 0 0 1 .825.659c.025.221.498 5.18-5.288 9.087 6.099 4.07 5.337 8.913 5.299 9.128Zm-8.928-6.604a.75.75 0 1 0-1.004-1.113C4.65 17.13 5.27 20.97 5.298 21.13a.747.747 0 0 0 .862.607.75.75 0 0 0 .615-.862c-.019-.13-.473-3.217 2.997-6.348Z"/></svg>
